src/assets/svg/icons/fa/nuevos/classic/duotone/truck-monster classic duotone.svg

<svg xmlns="http://www.w3.org/2000/svg" viewBox="0 0 640 512"><!--! Font Awesome Pro 6.4.0 by @fontawesome - https://fontawesome.com License - https://fontawesome.com/license (Commercial License) Copyright 2023 Fonticons, Inc. --><defs><style>.fa-secondary{opacity:.4}</style></defs><path class="fa-primary" d="M288 64v64H416L368 64H288zM419.2 25.6L496 128h80c17.7 0 32 14.3 32 32v64c17.7 0 32 14.3 32 32s-14.3 32-32 32c-29.2-38.9-75.7-64-128-64s-98.8 25.1-128 64H288c-29.2-38.9-75.7-64-128-64s-98.8 25.1-128 64c-17.7 0-32-14.3-32-32s14.3-32 32-32V160c0-17.7 14.3-32 32-32H224V48c0-26.5 21.5-48 48-48h96c20.1 0 39.1 9.5 51.2 25.6z"/><path class="fa-secondary" d="M130.3 276c4.8-11.7 16.2-20 29.7-20s24.9 8.3 29.7 20c9.1 2.5 17.7 6.1 25.7 10.7c11.6-4.9 25.6-2.6 35.1 6.8s11.8 23.5 6.8 35.1c4.6 8 8.2 16.6 10.7 25.7c11.7 4.8 20 16.2 20 29.7s-8.3 24.9-20 29.7c-2.5 9.1-6.1 17.7-10.7 25.7c4.9 11.6 2.6 25.6-6.8 35.1s-23.5 11.8-35.1 6.8c-8 4.6-16.6 8.2-25.7 10.7c-4.8 11.7-16.2 20-29.7 20s-24.9-8.3-29.7-20c-9.1-2.5-17.7-6.1-25.7-10.7C93 486.3 79 484 69.5 474.5S57.7 451 62.6 439.4c-4.6-8-8.2-16.6-10.7-25.7c-11.7-4.8-20-16.2-20-29.7s8.3-24.9 20-29.7c2.5-9.1 6.1-17.7 10.7-25.7C57.7 317 60 303 69.5 293.5s23.5-11.8 35.1-6.8c8-4.6 16.6-8.2 25.7-10.7zM208 384a48 48 0 1 0 -96 0 48 48 0 1 0 96 0zM450.3 276c4.8-11.7 16.2-20 29.7-20s24.9 8.3 29.7 20c9.1 2.5 17.7 6.1 25.7 10.7c11.6-4.9 25.6-2.6 35.1 6.8s11.8 23.5 6.9 35.1c4.6 8 8.2 16.6 10.7 25.7c11.7 4.8 20 16.2 20 29.7s-8.3 24.9-20 29.7c-2.5 9.1-6.1 17.7-10.7 25.7c4.9 11.6 2.6 25.6-6.9 35.1s-23.5 11.8-35.1 6.8c-8 4.6-16.6 8.2-25.7 10.7c-4.8 11.7-16.2 20-29.7 20s-24.9-8.3-29.7-20c-9.1-2.5-17.7-6.1-25.7-10.7c-11.6 4.9-25.6 2.6-35.1-6.9s-11.8-23.5-6.8-35.1c-4.6-8-8.2-16.6-10.7-25.7c-11.7-4.8-20-16.2-20-29.7s8.3-24.9 20-29.7c2.5-9.1 6.1-17.7 10.7-25.7c-4.9-11.6-2.6-25.6 6.8-35.1s23.5-11.8 35.1-6.8c8-4.6 16.6-8.2 25.7-10.7zM528 384a48 48 0 1 0 -96 0 48 48 0 1 0 96 0z"/></svg>

<svg xmlns="http://www.w3.org/2000/svg" viewBox="0 0 640 512"><defs><style>.fa-secondary{opacity:.4}</style></defs><path class="fa-primary" d="M419.2 25.6L496 128H576C593.7 128 608 142.3 608 160V224C625.7 224 640 238.3 640 256C640 273.7 625.7 287.1 608 288C578.8 249.1 532.3 224 480 224C427.7 224 381.2 249.1 351.1 288H288C258.8 249.1 212.3 224 160 224C107.7 224 61.18 249.1 31.99 288C14.32 287.1 0 273.7 0 256C0 238.3 14.33 224 32 224V160C32 142.3 46.33 128 64 128H224V48C224 21.49 245.5 0 272 0H368C388.1 0 407.1 9.484 419.2 25.6H419.2zM288 128H416L368 64H288V128z"/><path class="fa-secondary" d="M130.3 275.1C135.1 264.3 146.6 256 160 256C173.4 256 184.9 264.3 189.7 275.1C198.8 278.5 207.4 282.1 215.4 286.6C227 281.7 241 284 250.5 293.5C260 302.1 262.3 316.1 257.4 328.6C261.9 336.6 265.5 345.2 268 354.3C279.7 359.1 288 370.6 288 384C288 397.4 279.7 408.9 268 413.7C265.5 422.8 261.9 431.4 257.4 439.4C262.3 451 260 465 250.5 474.5C241 484 227.1 486.3 215.4 481.4C207.4 485.9 198.8 489.5 189.7 492C184.9 503.7 173.4 512 160 512C146.6 512 135.1 503.7 130.3 492C121.2 489.5 112.6 485.9 104.6 481.4C92.95 486.3 78.98 484 69.49 474.5C59.1 465 57.72 451 62.64 439.4C58.07 431.4 54.46 422.8 51.97 413.7C40.26 408.9 32 397.4 32 384C32 370.6 40.26 359.1 51.97 354.3C54.46 345.2 58.07 336.6 62.64 328.6C57.72 316.1 59.1 302.1 69.49 293.5C78.98 283.1 92.95 281.7 104.6 286.6C112.6 282.1 121.2 278.5 130.3 275.1V275.1zM160 336C133.5 336 112 357.5 112 384C112 410.5 133.5 432 160 432C186.5 432 208 410.5 208 384C208 357.5 186.5 336 160 336zM450.3 275.1C455.1 264.3 466.6 256 480 256C493.4 256 504.9 264.3 509.7 275.1C518.8 278.5 527.4 282.1 535.4 286.6C547 281.7 561 284 570.5 293.5C580 302.1 582.3 316.1 577.4 328.6C581.9 336.6 585.5 345.2 588 354.3C599.7 359.1 608 370.6 608 384C608 397.4 599.7 408.9 588 413.7C585.5 422.8 581.9 431.4 577.4 439.4C582.3 451 580 465 570.5 474.5C561 484 547 486.3 535.4 481.4C527.4 485.9 518.8 489.5 509.7 492C504.9 503.7 493.4 512 480 512C466.6 512 455.1 503.7 450.3 492C441.2 489.5 432.6 485.9 424.6 481.4C412.1 486.3 398.1 484 389.5 474.5C380 465 377.7 451 382.6 439.4C378.1 431.4 374.5 422.8 371.1 413.7C360.3 408.9 352 397.4 352 384C352 370.6 360.3 359.1 371.1 354.3C374.5 345.2 378.1 336.6 382.6 328.6C377.7 316.1 380 302.1 389.5 293.5C398.1 283.1 412.1 281.7 424.6 286.6C432.6 282.1 441.2 278.5 450.3 275.1zM480 336C453.5 336 432 357.5 432 384C432 410.5 453.5 432 480 432C506.5 432 528 410.5 528 384C528 357.5 506.5 336 480 336z"/></svg>
